app/images/dist/logo.svg

<svg width="192" height="36" viewBox="0 0 192 36" fill="none" xmlns="http://www.w3.org/2000/svg">
<path d="M39.9863 19.7727C39.9863 13.6544 44.4506 9.1687 50.7884 9.1687C57.1262 9.1687 61.488 13.6544 61.488 19.7727V21.5084H45.0591C45.7188 24.4645 47.9414 25.9941 50.7884 25.9941C52.9181 25.9941 54.5385 25.3822 55.5537 24.062H60.7258C59.2046 27.8714 55.5537 30.3767 50.8396 30.3767C44.4506 30.3767 39.9863 25.891 39.9863 19.7727ZM56.364 17.6313C55.605 14.9296 53.4241 13.6029 50.7884 13.6029C48.0502 13.6029 45.9846 14.9811 45.2096 17.6313H56.364Z" fill="#18191A"/>
<path d="M63.0059 19.367C63.0059 12.6368 66.961 9.1687 72.8952 9.1687C78.8295 9.1687 82.7813 12.5853 82.7813 19.367V29.8679H77.9776V19.367C77.9776 15.5414 75.9504 13.7059 72.908 13.7059C69.8656 13.7059 67.8384 15.5414 67.8384 19.367V29.8679H63.0347L63.0059 19.367Z" fill="#18191A"/>
<path d="M84.4053 23.9042H89.2731C89.3243 25.2277 90.49 26.1583 92.8215 26.1583C95.3066 26.1583 96.3699 25.1407 96.3699 23.9042C96.3699 22.3746 94.5957 22.1685 92.4148 21.8626C89.3243 21.4569 84.812 20.9449 84.812 16.0019C84.812 11.8704 87.9537 9.1687 92.7702 9.1687C97.6893 9.1687 100.68 11.9219 100.776 15.4899H96.0176C95.9151 14.2662 94.7366 13.4 92.8727 13.4C90.743 13.4 89.7278 14.4208 89.7278 15.5929C89.7278 17.1225 91.5533 17.3769 93.6829 17.6828C96.3698 18.0403 101.289 18.6006 101.289 23.5983C101.289 27.675 97.9935 30.3606 92.8727 30.3606C87.7519 30.3606 84.5078 27.675 84.4053 23.9042Z" fill="#18191A"/>
<path d="M103.47 0.908936H108.273V12.5337C108.876 11.4822 109.75 10.6142 110.803 10.0218C111.856 9.42936 113.049 9.13456 114.256 9.16866C118.871 9.16866 123.284 12.1763 123.284 19.3669V29.8679H118.493V19.3669C118.493 15.5414 116.449 13.7027 113.407 13.7027C110.467 13.7027 108.338 15.6348 108.338 19.3637V29.8679H103.534V0.908936H103.47Z" fill="#18191A"/>
<path d="M125.576 18.1433V29.8679H130.38V18.1433C130.38 14.8781 132.004 13.7059 134.335 13.7059V9.1687C129.176 9.1687 125.576 12.0733 125.576 18.1433Z" fill="#18191A"/>
<path d="M140.484 3.86513C140.45 3.00639 140.757 2.16943 141.338 1.53835C141.918 0.907279 142.724 0.533793 143.578 0.500059C144.432 0.466324 145.264 0.775104 145.892 1.35847C146.519 1.94184 146.891 2.752 146.924 3.61074V3.86513C146.898 4.7062 146.547 5.50394 145.946 6.0895C145.345 6.67506 144.541 7.0025 143.704 7.0025C142.867 7.0025 142.063 6.67506 141.462 6.0895C140.861 5.50394 140.51 4.7062 140.484 3.86513ZM141.294 9.22027H146.098V29.868H141.294V9.22027Z" fill="#18191A"/>
<path d="M149.153 19.367C149.153 12.6368 153.108 9.1687 159.043 9.1687C164.977 9.1687 168.929 12.5853 168.929 19.367V29.8679H164.125V19.367C164.125 15.5414 162.098 13.7059 159.055 13.7059C156.013 13.7059 153.983 15.5414 153.983 19.367V29.8679H149.179L149.153 19.367Z" fill="#18191A"/>
<path d="M170.501 19.7727C170.501 13.6544 174.962 9.1687 181.3 9.1687C187.638 9.1687 191.999 13.6544 191.999 19.7727V21.5084H175.571C176.23 24.4645 178.453 25.9941 181.3 25.9941C183.429 25.9941 185.053 25.3822 186.068 24.062H191.237C189.719 27.8714 186.065 30.3767 181.351 30.3767C174.962 30.3767 170.501 25.891 170.501 19.7727ZM186.879 17.6313C186.116 14.9296 183.939 13.6029 181.3 13.6029C178.562 13.6029 176.496 14.9811 175.724 17.6313H186.879Z" fill="#18191A"/>
<path d="M138.86 9.1687H134.185V13.7059H138.86V9.1687Z" fill="#18191A"/>
<path d="M27.5415 7.96753H4.4834V30.8307H27.5415V7.96753Z" fill="white"/>
<path d="M4.80376 3.29834C3.52973 3.29834 2.30787 3.80724 1.40699 4.71309C0.506109 5.61894 0 6.84753 0 8.12859L0 35.5H27.2213C28.4954 35.5 29.7172 34.9911 30.6181 34.0853C31.519 33.1794 32.0251 31.9508 32.0251 30.6698V3.29834H4.80376ZM17.6138 30.6698H4.80376V17.7891H9.92778V25.5175H17.6138V30.6698ZM27.2213 13.2809V21.0093H22.0973V13.2809H14.4113V8.12859H27.2213V13.2809Z" fill="url(#paint0_linear_402_2903)"/>
<defs>
<linearGradient id="paint0_linear_402_2903" x1="0" y1="19.3992" x2="32.0251" y2="19.3992" gradientUnits="userSpaceOnUse">
<stop stop-color="#884B9C"/>
<stop offset="0.6" stop-color="#D76D78"/>
<stop offset="1" stop-color="#F9AD7B"/>
</linearGradient>
</defs>
</svg>

<svg width="192" height="36" fill="none" xmlns="http://www.w3.org/2000/svg"><path d="M39.986 19.773c0-6.119 4.465-10.604 10.802-10.604 6.338 0 10.7 4.485 10.7 10.604v1.735H45.059c.66 2.957 2.882 4.486 5.73 4.486 2.13 0 3.75-.612 4.765-1.932h5.172c-1.521 3.81-5.172 6.315-9.886 6.315-6.39 0-10.854-4.486-10.854-10.604Zm16.378-2.142c-.759-2.701-2.94-4.028-5.576-4.028-2.738 0-4.803 1.378-5.578 4.028h11.154Zm6.642 1.736c0-6.73 3.955-10.198 9.89-10.198 5.933 0 9.885 3.416 9.885 10.198v10.5h-4.803v-10.5c0-3.826-2.028-5.661-5.07-5.661-3.042 0-5.07 1.835-5.07 5.661v10.5h-4.803l-.03-10.5Zm21.399 4.537h4.868c.051 1.324 1.217 2.254 3.549 2.254 2.485 0 3.548-1.017 3.548-2.254 0-1.53-1.774-1.735-3.955-2.041-3.09-.406-7.603-.918-7.603-5.861 0-4.132 3.142-6.833 7.958-6.833 4.92 0 7.91 2.753 8.006 6.32h-4.758c-.103-1.223-1.281-2.089-3.145-2.089-2.13 0-3.145 1.02-3.145 2.193 0 1.53 1.825 1.784 3.955 2.09 2.687.357 7.606.918 7.606 5.915 0 4.077-3.296 6.763-8.416 6.763-5.121 0-8.365-2.686-8.468-6.457ZM103.47.909h4.803v11.625a6.711 6.711 0 0 1 2.53-2.512 6.657 6.657 0 0 1 3.453-.853c4.615 0 9.028 3.007 9.028 10.198v10.5h-4.791v-10.5c0-3.826-2.044-5.664-5.086-5.664-2.94 0-5.069 1.932-5.069 5.66v10.505h-4.804V.908h-.064Zm22.106 17.234v11.725h4.804V18.143c0-3.265 1.624-4.437 3.955-4.437V9.169c-5.159 0-8.759 2.904-8.759 8.974Zm14.908-14.278a3.246 3.246 0 0 1 .854-2.327 3.213 3.213 0 0 1 4.554-.18 3.248 3.248 0 0 1 1.032 2.253v.254a3.246 3.246 0 0 1-.978 2.224 3.212 3.212 0 0 1-4.484 0 3.246 3.246 0 0 1-.978-2.224Zm.81 5.355h4.804v20.648h-4.804V9.22Zm7.859 10.147c0-6.73 3.955-10.198 9.89-10.198 5.934 0 9.886 3.416 9.886 10.198v10.5h-4.804v-10.5c0-3.826-2.027-5.661-5.07-5.661-3.042 0-5.072 1.835-5.072 5.661v10.5h-4.804l-.026-10.5Zm21.348.406c0-6.119 4.461-10.604 10.799-10.604 6.338 0 10.699 4.485 10.699 10.604v1.735h-16.428c.659 2.957 2.882 4.486 5.729 4.486 2.129 0 3.753-.612 4.768-1.932h5.169c-1.518 3.81-5.172 6.315-9.886 6.315-6.389 0-10.85-4.486-10.85-10.604Zm16.378-2.142c-.763-2.701-2.94-4.028-5.579-4.028-2.738 0-4.804 1.378-5.576 4.028h11.155Z" fill="#18191A"/><path d="M138.86 9.169h-4.675v4.537h4.675V9.169Z" fill="#18191A"/><path d="M27.541 7.968H4.483V30.83h23.058V7.968Z" fill="#fff"/><path d="M4.804 3.298a4.79 4.79 0 0 0-3.397 1.415A4.844 4.844 0 0 0 0 8.13V35.5h27.221a4.79 4.79 0 0 0 3.397-1.415 4.844 4.844 0 0 0 1.407-3.415V3.298H4.804Zm12.81 27.372H4.804V17.79h5.124v7.727h7.686v5.153Zm9.607-17.39v7.73h-5.124v-7.73h-7.686V8.13h12.81v5.152Z" fill="url(#a)"/><defs><linearGradient id="a" x1="0" y1="19.399" x2="32.025" y2="19.399" gradientUnits="userSpaceOnUse"><stop stop-color="#884B9C"/><stop offset=".6" stop-color="#D76D78"/><stop offset="1" stop-color="#F9AD7B"/></linearGradient></defs></svg>
